france-24.svg

<?xml version="1.0" encoding="UTF-8"?>
<!DOCTYPE svg PUBLIC "-//W3C//DTD SVG 1.1//EN" "http://www.w3.org/Graphics/SVG/1.1/DTD/svg11.dtd">
<svg xmlns="http://www.w3.org/2000/svg" version="1.1" width="432px" height="120px" style="shape-rendering:geometricPrecision; text-rendering:geometricPrecision; image-rendering:optimizeQuality; fill-rule:evenodd; clip-rule:evenodd" xmlns:xlink="http://www.w3.org/1999/xlink">
<g><path style="opacity:1" fill="#0ba8e4" d="M -0.5,-0.5 C 143.5,-0.5 287.5,-0.5 431.5,-0.5C 431.5,21.8333 431.5,44.1667 431.5,66.5C 384.634,92.5772 334.301,104.744 280.5,103C 270.974,102.036 261.974,99.3695 253.5,95C 245.525,88.5316 244.525,81.1982 250.5,73C 244.716,76.8541 241.383,82.5207 240.5,90C 241.868,98.369 246.534,104.036 254.5,107C 270.459,111.936 286.793,113.936 303.5,113C 348.755,110.188 391.422,98.3549 431.5,77.5C 431.5,86.8333 431.5,96.1667 431.5,105.5C 419.879,110.484 408.212,115.151 396.5,119.5C 338.833,119.5 281.167,119.5 223.5,119.5C 221.591,114.576 221.091,109.576 222,104.5C 218.8,108.96 217.3,113.96 217.5,119.5C 144.833,119.5 72.1667,119.5 -0.5,119.5C -0.5,79.5 -0.5,39.5 -0.5,-0.5 Z"/></g>
<g><path style="opacity:1" fill="#f9fcfe" d="M 163.5,33.5 C 166.698,32.9644 169.365,33.631 171.5,35.5C 170.947,39.7605 168.613,42.5939 164.5,44C 152.477,46.4664 146.143,41.633 145.5,29.5C 145.172,22.9885 147.838,18.1552 153.5,15C 159.516,13.5203 164.85,14.687 169.5,18.5C 170.946,20.6179 171.613,22.9512 171.5,25.5C 167.414,26.1544 164.081,24.9878 161.5,22C 159.833,21.3333 158.167,21.3333 156.5,22C 152.781,26.71 152.614,31.5433 156,36.5C 159.758,38.3924 162.258,37.3924 163.5,33.5 Z"/></g>
<g><path style="opacity:1" fill="#d6f0fa" d="M 176.5,15.5 C 183.982,14.508 191.648,14.1746 199.5,14.5C 199.802,17.0593 199.468,19.3926 198.5,21.5C 198.5,19.5 198.5,17.5 198.5,15.5C 191.167,15.5 183.833,15.5 176.5,15.5 Z"/></g>
<g><path style="opacity:1" fill="#fbfdfe" d="M 50.5,27.5 C 50.5,29.5 50.5,31.5 50.5,33.5C 47.2869,33.19 44.2869,33.5233 41.5,34.5C 40.5233,37.2869 40.19,40.2869 40.5,43.5C 37.8333,43.5 35.1667,43.5 32.5,43.5C 32.5,34.1667 32.5,24.8333 32.5,15.5C 39.3134,14.5088 46.3134,14.1755 53.5,14.5C 53.5,16.8333 53.5,19.1667 53.5,21.5C 49.5,21.5 45.5,21.5 41.5,21.5C 41.5,23.5 41.5,25.5 41.5,27.5C 44.5,27.5 47.5,27.5 50.5,27.5 Z"/></g>
<g><path style="opacity:1" fill="#f8fcfe" d="M 57.5,14.5 C 63.5092,14.3338 69.5092,14.5005 75.5,15C 83.9675,20.3081 84.6342,26.4748 77.5,33.5C 79.1667,36.8333 80.8333,40.1667 82.5,43.5C 79.5,44.8333 76.5,44.8333 73.5,43.5C 72.1667,40.8333 70.8333,38.1667 69.5,35.5C 68.3112,34.5713 66.9778,34.238 65.5,34.5C 65.5,37.8333 65.5,41.1667 65.5,44.5C 62.8333,44.5 60.1667,44.5 57.5,44.5C 57.5,34.5 57.5,24.5 57.5,14.5 Z"/></g>
<g><path style="opacity:1" fill="#f7fcfe" d="M 94.5,14.5 C 97.7766,14.2161 100.943,14.5495 104,15.5C 107.072,24.8815 110.238,34.2148 113.5,43.5C 110.572,44.4841 107.572,44.8174 104.5,44.5C 104.67,43.1779 104.337,42.0113 103.5,41C 100.183,40.5017 96.8499,40.335 93.5,40.5C 93.5,41.8333 93.5,43.1667 93.5,44.5C 90.4281,44.8174 87.4281,44.4841 84.5,43.5C 88.1294,33.9139 91.4627,24.2472 94.5,14.5 Z"/></g>
<g><path style="opacity:1" fill="#fcfefe" d="M 131.5,28.5 C 131.56,29.0431 131.893,29.3764 132.5,29.5C 133.494,24.544 133.827,19.544 133.5,14.5C 136.059,14.1984 138.393,14.5318 140.5,15.5C 140.5,24.8333 140.5,34.1667 140.5,43.5C 137.833,43.5 135.167,43.5 132.5,43.5C 130.421,39.0074 128.088,34.674 125.5,30.5C 125.44,29.9569 125.107,29.6236 124.5,29.5C 123.506,34.456 123.173,39.456 123.5,44.5C 121.167,44.5 118.833,44.5 116.5,44.5C 116.5,34.5 116.5,24.5 116.5,14.5C 119.187,14.3359 121.854,14.5026 124.5,15C 126.974,19.4482 129.307,23.9482 131.5,28.5 Z"/></g>
<g><path style="opacity:1" fill="#c1e9f8" d="M 140.5,15.5 C 141.494,24.9856 141.827,34.6522 141.5,44.5C 138.287,44.81 135.287,44.4767 132.5,43.5C 135.167,43.5 137.833,43.5 140.5,43.5C 140.5,34.1667 140.5,24.8333 140.5,15.5 Z"/></g>
<g><path style="opacity:1" fill="#fdfefe" d="M 176.5,15.5 C 183.833,15.5 191.167,15.5 198.5,15.5C 198.5,17.5 198.5,19.5 198.5,21.5C 194.167,21.5 189.833,21.5 185.5,21.5C 185.5,23.1667 185.5,24.8333 185.5,26.5C 189.167,26.5 192.833,26.5 196.5,26.5C 196.5,28.5 196.5,30.5 196.5,32.5C 192.833,32.5 189.167,32.5 185.5,32.5C 185.5,34.1667 185.5,35.8333 185.5,37.5C 189.833,37.5 194.167,37.5 198.5,37.5C 198.5,39.5 198.5,41.5 198.5,43.5C 191.167,43.5 183.833,43.5 176.5,43.5C 176.5,34.1667 176.5,24.8333 176.5,15.5 Z"/></g>
<g><path style="opacity:1" fill="#6dcbee" d="M 133.5,14.5 C 133.827,19.544 133.494,24.544 132.5,29.5C 131.893,29.3764 131.56,29.0431 131.5,28.5C 132.167,23.8333 132.833,19.1667 133.5,14.5 Z"/></g>
<g><path style="opacity:1" fill="#f6fcfe" d="M 359.5,20.5 C 366.574,20.161 373.574,20.661 380.5,22C 386.292,22.7853 388.458,25.952 387,31.5C 385.542,33.96 383.709,36.1266 381.5,38C 357.963,52.5553 332.629,57.5553 305.5,53C 301.874,50.7487 300.707,47.5821 302,43.5C 305.078,39.9155 308.578,36.9155 312.5,34.5C 313.492,34.3284 314.158,34.6618 314.5,35.5C 312.106,37.8906 310.106,40.5573 308.5,43.5C 308.931,45.7661 310.264,47.2661 312.5,48C 332.063,50.8508 350.73,47.8508 368.5,39C 372.579,36.9249 376.079,34.0916 379,30.5C 379.825,28.2992 379.325,26.4659 377.5,25C 374.321,23.5387 370.988,22.7054 367.5,22.5C 364.833,21.8333 362.167,21.1667 359.5,20.5 Z"/></g>
<g><path style="opacity:1" fill="#2dafe6" d="M 65.5,21.5 C 68.1667,21.5 70.8333,21.5 73.5,21.5C 73.5,23.5 73.5,25.5 73.5,27.5C 70.8333,27.5 68.1667,27.5 65.5,27.5C 65.5,25.5 65.5,23.5 65.5,21.5 Z"/></g>
<g><path style="opacity:1" fill="#0fa9e4" d="M 367.5,22.5 C 370.988,22.7054 374.321,23.5387 377.5,25C 379.325,26.4659 379.825,28.2992 379,30.5C 376.079,34.0916 372.579,36.9249 368.5,39C 350.73,47.8508 332.063,50.8508 312.5,48C 310.264,47.2661 308.931,45.7661 308.5,43.5C 310.106,40.5573 312.106,37.8906 314.5,35.5C 330.97,26.4578 348.637,22.1245 367.5,22.5 Z"/></g>
<g><path style="opacity:1" fill="#f9fcfe" d="M 405.5,20.5 C 411.44,20.3205 416.94,22.3205 422,26.5C 425.373,31.9466 425.039,37.2799 421,42.5C 408.841,54.1704 394.674,62.6704 378.5,68C 347.419,80.1829 315.419,83.8496 282.5,79C 270.481,75.7991 266.981,68.6325 272,57.5C 274.667,54.8333 277.333,52.1667 280,49.5C 278.179,52.6655 276.679,56.1655 275.5,60C 276.655,66.0945 280.321,69.7612 286.5,71C 326.006,75.8592 363.339,68.8592 398.5,50C 406.359,46.1414 412.192,40.308 416,32.5C 416.335,25.3255 412.835,21.3255 405.5,20.5 Z"/></g>
<g><path style="opacity:1" fill="#e0f3fb" d="M 359.5,20.5 C 362.167,21.1667 364.833,21.8333 367.5,22.5C 348.637,22.1245 330.97,26.4578 314.5,35.5C 314.158,34.6618 313.492,34.3284 312.5,34.5C 326.984,26.2308 342.651,21.5642 359.5,20.5 Z"/></g>
<g><path style="opacity:1" fill="#44b6e8" d="M 98.5,24.5 C 100.243,27.4952 101.243,30.8285 101.5,34.5C 99.8333,34.5 98.1667,34.5 96.5,34.5C 96.5399,31.0124 97.2066,27.6791 98.5,24.5 Z"/></g>
<g><path style="opacity:1" fill="#90d8f3" d="M 125.5,30.5 C 124.833,35.1667 124.167,39.8333 123.5,44.5C 123.173,39.456 123.506,34.456 124.5,29.5C 125.107,29.6236 125.44,29.9569 125.5,30.5 Z"/></g>
<g><path style="opacity:0.98" fill="#b6e5f6" d="M 163.5,33.5 C 166.287,32.5233 169.287,32.19 172.5,32.5C 172.737,33.791 172.404,34.791 171.5,35.5C 169.365,33.631 166.698,32.9644 163.5,33.5 Z"/></g>
<g><path style="opacity:0.977" fill="#c5eaf8" d="M 50.5,27.5 C 51.4682,29.6074 51.8016,31.9407 51.5,34.5C 48.1667,34.5 44.8333,34.5 41.5,34.5C 44.2869,33.5233 47.2869,33.19 50.5,33.5C 50.5,31.5 50.5,29.5 50.5,27.5 Z"/></g>
<g><path style="opacity:1" fill="#b3e3f6" d="M 32.5,15.5 C 32.5,24.8333 32.5,34.1667 32.5,43.5C 35.1667,43.5 37.8333,43.5 40.5,43.5C 40.19,40.2869 40.5233,37.2869 41.5,34.5C 41.5,37.8333 41.5,41.1667 41.5,44.5C 38.1667,44.5 34.8333,44.5 31.5,44.5C 31.1729,34.6522 31.5062,24.9856 32.5,15.5 Z"/></g>
<g><path style="opacity:1" fill="#cdedf9" d="M 198.5,37.5 C 199.468,39.6074 199.802,41.9407 199.5,44.5C 191.648,44.8254 183.982,44.492 176.5,43.5C 183.833,43.5 191.167,43.5 198.5,43.5C 198.5,41.5 198.5,39.5 198.5,37.5 Z"/></g>
<g><path style="opacity:1" fill="#fbfdfe" d="M 53.5,91.5 C 52.9569,91.56 52.6236,91.8933 52.5,92.5C 59.656,93.8188 66.656,93.8188 73.5,92.5C 74.3247,88.3528 74.8247,84.0195 75,79.5C 82.3792,71.1228 89.3792,62.4561 96,53.5C 101.072,52.5286 106.238,52.1953 111.5,52.5C 111.5,62.5 111.5,72.5 111.5,82.5C 113.833,82.5 116.167,82.5 118.5,82.5C 118.5,86.8333 118.5,91.1667 118.5,95.5C 116.167,95.5 113.833,95.5 111.5,95.5C 111.5,98.8333 111.5,102.167 111.5,105.5C 106.5,105.5 101.5,105.5 96.5,105.5C 96.5,102.167 96.5,98.8333 96.5,95.5C 89.1667,95.5 81.8333,95.5 74.5,95.5C 74.5,98.8333 74.5,102.167 74.5,105.5C 60.1667,105.5 45.8333,105.5 31.5,105.5C 31.0349,101.208 31.8682,97.2076 34,93.5C 40.3241,86.0957 47.8241,80.2624 56.5,76C 59.9807,72.6031 60.314,68.9364 57.5,65C 49.2105,62.7918 45.2105,65.9584 45.5,74.5C 41.1667,74.5 36.8333,74.5 32.5,74.5C 32.134,60.1964 39.134,52.5297 53.5,51.5C 70.8619,52.3464 77.0285,61.0131 72,77.5C 67.1394,83.8565 60.9727,88.5232 53.5,91.5 Z"/></g>
<g><path style="opacity:1" fill="#fafdfe" d="M 431.5,66.5 C 431.5,70.1667 431.5,73.8333 431.5,77.5C 391.422,98.3549 348.755,110.188 303.5,113C 286.793,113.936 270.459,111.936 254.5,107C 246.534,104.036 241.868,98.369 240.5,90C 241.383,82.5207 244.716,76.8541 250.5,73C 244.525,81.1982 245.525,88.5316 253.5,95C 261.974,99.3695 270.974,102.036 280.5,103C 334.301,104.744 384.634,92.5772 431.5,66.5 Z"/></g>
<g><path style="opacity:1" fill="#20ade5" d="M 94.5,68.5 C 96.4364,72.7147 97.1031,77.3814 96.5,82.5C 92.4454,82.8242 88.4454,82.4909 84.5,81.5C 88.5777,77.6473 91.911,73.314 94.5,68.5 Z"/></g>
<g><path style="opacity:0.973" fill="#9fddf4" d="M 53.5,91.5 C 59.979,92.4907 66.6457,92.824 73.5,92.5C 66.656,93.8188 59.656,93.8188 52.5,92.5C 52.6236,91.8933 52.9569,91.56 53.5,91.5 Z"/></g>
<g><path style="opacity:1" fill="#fafdfe" d="M 431.5,105.5 C 431.5,110.167 431.5,114.833 431.5,119.5C 419.833,119.5 408.167,119.5 396.5,119.5C 408.212,115.151 419.879,110.484 431.5,105.5 Z"/></g>
<g><path style="opacity:1" fill="#f2f9fb" d="M 223.5,119.5 C 221.5,119.5 219.5,119.5 217.5,119.5C 217.3,113.96 218.8,108.96 222,104.5C 221.091,109.576 221.591,114.576 223.5,119.5 Z"/></g>
</svg>

<svg xmlns="http://www.w3.org/2000/svg" width="432" height="120" style="shape-rendering:geometricPrecision;text-rendering:geometricPrecision;image-rendering:optimizeQuality;fill-rule:evenodd;clip-rule:evenodd"><path style="opacity:1" fill="#0ba8e4" d="M-.5-.5h432v67c-46.866 26.077-97.199 38.244-151 36.5-9.526-.964-18.526-3.63-27-8-7.975-6.468-8.975-13.802-3-22-5.784 3.854-9.117 9.52-10 17 1.368 8.369 6.034 14.036 14 17 15.959 4.936 32.293 6.936 49 6 45.255-2.812 87.922-14.645 128-35.5v28a759.947 759.947 0 0 1-35 14h-173c-1.909-4.924-2.409-9.924-1.5-15-3.2 4.46-4.7 9.46-4.5 15H-.5V-.5z"/><path style="opacity:1" fill="#f9fcfe" d="M163.5 33.5c3.198-.536 5.865.131 8 2-.553 4.26-2.887 7.094-7 8.5-12.023 2.466-18.357-2.367-19-14.5-.328-6.512 2.338-11.345 8-14.5 6.016-1.48 11.35-.313 16 3.5 1.446 2.118 2.113 4.451 2 7-4.086.654-7.419-.512-10-3.5-1.667-.667-3.333-.667-5 0-3.719 4.71-3.886 9.543-.5 14.5 3.758 1.892 6.258.892 7.5-3z"/><path style="opacity:1" fill="#d6f0fa" d="M176.5 15.5c7.482-.992 15.148-1.325 23-1 .302 2.56-.032 4.893-1 7v-6h-22z"/><path style="opacity:1" fill="#fbfdfe" d="M50.5 27.5v6c-3.213-.31-6.213.023-9 1-.977 2.787-1.31 5.787-1 9h-8v-28c6.813-.991 13.813-1.325 21-1v7h-12v6h9z"/><path style="opacity:1" fill="#f8fcfe" d="M57.5 14.5c6.01-.166 12.01 0 18 .5 8.468 5.308 9.134 11.475 2 18.5l5 10c-3 1.333-6 1.333-9 0l-4-8c-1.189-.929-2.522-1.262-4-1v10h-8v-30z"/><path style="opacity:1" fill="#f7fcfe" d="M94.5 14.5c3.277-.284 6.443.05 9.5 1a1382.033 1382.033 0 0 0 9.5 28 21.12 21.12 0 0 1-9 1c.17-1.322-.163-2.489-1-3.5a50.442 50.442 0 0 0-10-.5v4a21.12 21.12 0 0 1-9-1 512.413 512.413 0 0 0 10-29z"/><path style="opacity:1" fill="#fcfefe" d="M131.5 28.5c.06.543.393.876 1 1a57.15 57.15 0 0 0 1-15c2.559-.302 4.893.032 7 1v28h-8a121.383 121.383 0 0 0-7-13c-.06-.543-.393-.876-1-1a57.15 57.15 0 0 0-1 15h-7v-30a32.438 32.438 0 0 1 8 .5 259.466 259.466 0 0 1 7 13.5z"/><path style="opacity:1" fill="#c1e9f8" d="M140.5 15.5c.994 9.486 1.327 19.152 1 29-3.213.31-6.213-.023-9-1h8v-28z"/><path style="opacity:1" fill="#fdfefe" d="M176.5 15.5h22v6h-13v5h11v6h-11v5h13v6h-22v-28z"/><path style="opacity:1" fill="#6dcbee" d="M133.5 14.5a57.15 57.15 0 0 1-1 15c-.607-.124-.94-.457-1-1l2-14z"/><path style="opacity:1" fill="#f6fcfe" d="M359.5 20.5a88.039 88.039 0 0 1 21 1.5c5.792.785 7.958 3.952 6.5 9.5a25.558 25.558 0 0 1-5.5 6.5c-23.537 14.555-48.871 19.555-76 15-3.626-2.251-4.793-5.418-3.5-9.5 3.078-3.584 6.578-6.584 10.5-9 .992-.172 1.658.162 2 1a34.842 34.842 0 0 0-6 8c.431 2.266 1.764 3.766 4 4.5 19.563 2.85 38.23-.15 56-9 4.079-2.075 7.579-4.908 10.5-8.5.825-2.2.325-4.034-1.5-5.5a27.626 27.626 0 0 0-10-2.5l-8-2z"/><path style="opacity:1" fill="#2dafe6" d="M65.5 21.5h8v6h-8v-6z"/><path style="opacity:1" fill="#0fa9e4" d="M367.5 22.5a27.626 27.626 0 0 1 10 2.5c1.825 1.466 2.325 3.3 1.5 5.5-2.921 3.592-6.421 6.425-10.5 8.5-17.77 8.85-36.437 11.85-56 9-2.236-.734-3.569-2.234-4-4.5a34.842 34.842 0 0 1 6-8c16.47-9.042 34.137-13.375 53-13z"/><path style="opacity:1" fill="#f9fcfe" d="M405.5 20.5c5.94-.18 11.44 1.82 16.5 6 3.373 5.447 3.039 10.78-1 16-12.159 11.67-26.326 20.17-42.5 25.5-31.081 12.183-63.081 15.85-96 11-12.019-3.2-15.519-10.368-10.5-21.5l8-8c-1.821 3.166-3.321 6.666-4.5 10.5 1.155 6.094 4.821 9.761 11 11 39.506 4.86 76.839-2.14 112-21 7.859-3.859 13.692-9.692 17.5-17.5.335-7.174-3.165-11.174-10.5-12z"/><path style="opacity:1" fill="#e0f3fb" d="m359.5 20.5 8 2c-18.863-.375-36.53 3.958-53 13-.342-.838-1.008-1.172-2-1 14.484-8.27 30.151-12.936 47-14z"/><path style="opacity:1" fill="#44b6e8" d="M98.5 24.5c1.743 2.995 2.743 6.328 3 10h-5c.04-3.488.707-6.82 2-10z"/><path style="opacity:1" fill="#90d8f3" d="m125.5 30.5-2 14a57.15 57.15 0 0 1 1-15c.607.124.94.457 1 1z"/><path style="opacity:.98" fill="#b6e5f6" d="M163.5 33.5c2.787-.977 5.787-1.31 9-1 .237 1.291-.096 2.291-1 3-2.135-1.869-4.802-2.536-8-2z"/><path style="opacity:.977" fill="#c5eaf8" d="M50.5 27.5c.968 2.107 1.302 4.44 1 7h-10c2.787-.977 5.787-1.31 9-1v-6z"/><path style="opacity:1" fill="#b3e3f6" d="M32.5 15.5v28h8c-.31-3.213.023-6.213 1-9v10h-10c-.327-9.848.006-19.514 1-29z"/><path style="opacity:1" fill="#cdedf9" d="M198.5 37.5c.968 2.107 1.302 4.44 1 7-7.852.325-15.518-.008-23-1h22v-6z"/><path style="opacity:1" fill="#fbfdfe" d="M53.5 91.5c-.543.06-.876.393-1 1 7.156 1.319 14.156 1.319 21 0 .825-4.147 1.325-8.48 1.5-13a390.574 390.574 0 0 0 21-26 62.787 62.787 0 0 1 15.5-1v30h7v13h-7v10h-15v-10h-22v10h-43c-.465-4.292.368-8.292 2.5-12 6.324-7.404 13.824-13.238 22.5-17.5 3.48-3.397 3.814-7.064 1-11-8.29-2.208-12.29.958-12 9.5h-13c-.366-14.304 6.634-21.97 21-23 17.362.846 23.528 9.513 18.5 26-4.86 6.356-11.027 11.023-18.5 14z"/><path style="opacity:1" fill="#fafdfe" d="M431.5 66.5v11c-40.078 20.855-82.745 32.688-128 35.5-16.707.936-33.041-1.064-49-6-7.966-2.964-12.632-8.631-14-17 .883-7.48 4.216-13.146 10-17-5.975 8.198-4.975 15.532 3 22 8.474 4.37 17.474 7.036 27 8 53.801 1.744 104.134-10.423 151-36.5z"/><path style="opacity:1" fill="#20ade5" d="M94.5 68.5c1.936 4.215 2.603 8.881 2 14a36.874 36.874 0 0 1-12-1c4.078-3.853 7.411-8.186 10-13z"/><path style="opacity:.973" fill="#9fddf4" d="M53.5 91.5c6.479.99 13.146 1.324 20 1-6.844 1.319-13.844 1.319-21 0 .124-.607.457-.94 1-1z"/><path style="opacity:1" fill="#fafdfe" d="M431.5 105.5v14h-35a759.947 759.947 0 0 0 35-14z"/><path style="opacity:1" fill="#f2f9fb" d="M223.5 119.5h-6c-.2-5.54 1.3-10.54 4.5-15-.909 5.076-.409 10.076 1.5 15z"/></svg>
